svg/trail-sign.svg

<?xml version="1.0" encoding="UTF-8" standalone="no"?>
<svg
   xmlns:dc="http://purl.org/dc/elements/1.1/"
   xmlns:cc="http://creativecommons.org/ns#"
   xmlns:rdf="http://www.w3.org/1999/02/22-rdf-syntax-ns#"
   xmlns:svg="http://www.w3.org/2000/svg"
   xmlns="http://www.w3.org/2000/svg"
   xmlns:sodipodi="http://sodipodi.sourceforge.net/DTD/sodipodi-0.dtd"
   xmlns:inkscape="http://www.inkscape.org/namespaces/inkscape"
   class="ionicon"
   viewBox="0 0 512 512"
   version="1.1"
   id="svg6"
   sodipodi:docname="trail-sign.svg"
   inkscape:version="1.0.2 (e86c8708, 2021-01-15)">
  <metadata
     id="metadata12">
    <rdf:RDF>
      <cc:Work
         rdf:about="">
        <dc:format>image/svg+xml</dc:format>
        <dc:type
           rdf:resource="http://purl.org/dc/dcmitype/StillImage" />
      </cc:Work>
    </rdf:RDF>
  </metadata>
  <defs
     id="defs10" />
  <sodipodi:namedview
     pagecolor="#ffffff"
     bordercolor="#666666"
     borderopacity="1"
     objecttolerance="10"
     gridtolerance="10"
     guidetolerance="10"
     inkscape:pageopacity="0"
     inkscape:pageshadow="2"
     inkscape:window-width="689"
     inkscape:window-height="480"
     id="namedview8"
     showgrid="false"
     inkscape:zoom="1.3027344"
     inkscape:cx="256"
     inkscape:cy="256"
     inkscape:window-x="44"
     inkscape:window-y="25"
     inkscape:window-maximized="0"
     inkscape:current-layer="svg6" />
  <title
     id="title2">Trail Sign</title>
  <path
     style="color:#000000;font-style:normal;font-variant:normal;font-weight:normal;font-stretch:normal;font-size:medium;line-height:normal;font-family:sans-serif;font-variant-ligatures:normal;font-variant-position:normal;font-variant-caps:normal;font-variant-numeric:normal;font-variant-alternates:normal;font-variant-east-asian:normal;font-feature-settings:normal;font-variation-settings:normal;text-indent:0;text-align:start;text-decoration:none;text-decoration-line:none;text-decoration-style:solid;text-decoration-color:#000000;letter-spacing:normal;word-spacing:normal;text-transform:none;writing-mode:lr-tb;direction:ltr;text-orientation:mixed;dominant-baseline:auto;baseline-shift:baseline;text-anchor:start;white-space:normal;shape-padding:0;shape-margin:0;inline-size:0;clip-rule:nonzero;display:inline;overflow:visible;visibility:visible;isolation:auto;mix-blend-mode:normal;color-interpolation:sRGB;color-interpolation-filters:linearRGB;solid-color:#000000;solid-opacity:1;vector-effect:none;fill:#000000;fill-opacity:1;fill-rule:nonzero;stroke-width:1;stroke-linecap:butt;stroke-linejoin:miter;stroke-miterlimit:4;stroke-dasharray:none;stroke-dashoffset:0;stroke-opacity:1;color-rendering:auto;image-rendering:auto;shape-rendering:auto;text-rendering:auto;enable-background:accumulate;stop-color:#000000;stop-opacity:1;stroke:none;opacity:1"
     d="M 491.31,324.69 432,265.37 c -5.98967,-6.01961 -14.13816,-9.39351 -22.63,-9.37 H 272 v -32 h 144 c 17.67311,0 32,-14.32689 32,-32 V 96 C 448,78.326888 433.67311,64 416,64 H 272 V 48 c 0,-8.836562 -7.16344,-15.999993 -16,-15.999993 -8.83656,0 -16,7.163431 -16,15.999993 V 64 H 102.63 C 94.138163,63.976493 85.989673,67.350393 80,73.37 l -59.31,59.32 c -6.243446,6.24754 -6.243446,16.37246 0,22.62 L 80,214.63 c 5.989673,6.01961 14.138163,9.39351 22.63,9.37 H 240 v 32 H 96 c -17.673112,0 -32,14.32689 -32,32 v 96 c 0,17.67311 14.326888,32 32,32 h 144 v 48 c 0,8.83656 7.16344,15.99999 16,15.99999 8.83656,0 16,-7.16343 16,-15.99999 v -48 h 137.37 c 8.49184,0.0235 16.64033,-3.35039 22.63,-9.37 l 59.31,-59.32 c 6.24345,-6.24754 6.24345,-16.37246 0,-22.62 z"
     id="path4" />
</svg>

<svg xmlns="http://www.w3.org/2000/svg" width="512" height="512" viewBox="0 0 512 512"><title>ionicons-v5-l</title><path d="M491.31,324.69,432,265.37A31.8,31.8,0,0,0,409.37,256H272V224H416a32,32,0,0,0,32-32V96a32,32,0,0,0-32-32H272V48a16,16,0,0,0-32,0V64H102.63A31.8,31.8,0,0,0,80,73.37L20.69,132.69a16,16,0,0,0,0,22.62L80,214.63A31.8,31.8,0,0,0,102.63,224H240v32H96a32,32,0,0,0-32,32v96a32,32,0,0,0,32,32H240v48a16,16,0,0,0,32,0V416H409.37A31.8,31.8,0,0,0,432,406.63l59.31-59.32A16,16,0,0,0,491.31,324.69Z"/></svg>
